app/img/solutions/ic_electronic.svg

<svg width="33" height="33" viewBox="0 0 33 33" fill="none" xmlns="http://www.w3.org/2000/svg">
    <path d="M20.773 11.1853H12.2277C11.6371 11.1853 11.1855 11.6716 11.1855 12.2274V20.7727C11.1855 21.3632 11.6719 21.8148 12.2277 21.8148H20.773C21.3635 21.8148 21.8151 21.3285 21.8151 20.7727V12.2274C21.8151 11.6369 21.3635 11.1853 20.773 11.1853ZM19.7308 19.7306H13.2698V13.2695H19.6961V19.7306H19.7308Z"
          fill="#80FF9F"/>
    <path d="M31.9579 19.7305H27.6158V13.2695H31.9579C32.5484 13.2695 33 12.7832 33 12.2274C33 11.6716 32.5137 11.1853 31.9579 11.1853H27.6158V9.20526C27.6158 7.08632 25.9137 5.38421 23.7947 5.38421H21.8495V1.04211C21.8495 0.451579 21.3632 0 20.8074 0C20.2168 0 19.7653 0.486316 19.7653 1.04211V5.38421H13.2695V1.04211C13.2695 0.451579 12.7832 0 12.2274 0C11.6716 0 11.1853 0.486316 11.1853 1.04211V5.38421H9.20526C7.12105 5.38421 5.38421 7.12105 5.38421 9.20526V11.1505H1.04211C0.451579 11.1505 0 11.6368 0 12.1926C0 12.7484 0.486316 13.2347 1.04211 13.2347H5.38421V19.6611H1.04211C0.451579 19.6611 0 20.1474 0 20.7032C0 21.2589 0.486316 21.7453 1.04211 21.7453H5.38421V23.7947C5.38421 25.9137 7.08632 27.6158 9.20526 27.6158H11.1505V31.9579C11.1505 32.5484 11.6368 33 12.1926 33C12.7484 33 13.2347 32.5137 13.2347 31.9579V27.6158H19.6958V31.9579C19.6958 32.5484 20.1821 33 20.7379 33C21.3284 33 21.78 32.5137 21.78 31.9579V27.6158H23.7947C25.9137 27.6158 27.6158 25.9137 27.6158 23.7947V21.8147H31.9579C32.5484 21.8147 33 21.3284 33 20.7726C33 20.2168 32.5137 19.7305 31.9579 19.7305ZM25.4968 23.7947C25.4968 24.7326 24.7326 25.5316 23.76 25.5316H9.20526C8.26737 25.5316 7.46842 24.7674 7.46842 23.7947V9.20526C7.46842 8.26737 8.23263 7.46842 9.20526 7.46842H23.7947C24.7326 7.46842 25.5316 8.23263 25.5316 9.20526V23.7947H25.4968Z"
          fill="#80FF9F"/>
</svg>

<svg width="33" height="33" fill="none" xmlns="http://www.w3.org/2000/svg"><path d="M20.773 11.185h-8.545c-.59 0-1.043.487-1.043 1.042v8.546c0 .59.487 1.042 1.043 1.042h8.545c.59 0 1.042-.487 1.042-1.042v-8.546c0-.59-.452-1.042-1.042-1.042Zm-1.042 8.546H13.27v-6.462h6.426v6.462h.035Z" fill="#80FF9F"/><path d="M31.958 19.73h-4.342v-6.46h4.342c.59 0 1.042-.487 1.042-1.043 0-.555-.486-1.042-1.042-1.042h-4.342v-1.98a3.81 3.81 0 0 0-3.821-3.82h-1.946V1.041C21.85.452 21.363 0 20.807 0c-.59 0-1.042.486-1.042 1.042v4.342H13.27V1.042C13.27.452 12.783 0 12.227 0c-.555 0-1.042.486-1.042 1.042v4.342h-1.98c-2.084 0-3.82 1.737-3.82 3.821v1.945H1.041c-.59 0-1.042.487-1.042 1.043 0 .555.486 1.042 1.042 1.042h4.342v6.426H1.042c-.59 0-1.042.486-1.042 1.042s.486 1.042 1.042 1.042h4.342v2.05a3.81 3.81 0 0 0 3.821 3.82h1.945v4.343c0 .59.487 1.042 1.043 1.042.555 0 1.042-.486 1.042-1.042v-4.342h6.46v4.342c0 .59.487 1.042 1.043 1.042.59 0 1.042-.486 1.042-1.042v-4.342h2.015a3.81 3.81 0 0 0 3.82-3.821v-1.98h4.343c.59 0 1.042-.487 1.042-1.042 0-.556-.486-1.043-1.042-1.043Zm-6.461 4.065c0 .938-.764 1.737-1.737 1.737H9.205a1.742 1.742 0 0 1-1.737-1.737V9.205c0-.938.765-1.737 1.737-1.737h14.59c.938 0 1.737.765 1.737 1.737v14.59h-.035Z" fill="#80FF9F"/></svg>
